src/svg/npm.svg

<svg height="1000" width="1125.0" xmlns="http://www.w3.org/2000/svg">
    <path d="m562.5 562.5h-62.5v-125h62.5v125z m562.5-250v375h-562.5v62.5h-250v-62.5h-312.5v-375h1125z m-812.5 62.5h-250v250h125v-187.5h62.5v187.5h62.5v-250z m312.5 0h-250v312.5h125v-62.5h125v-250z m437.5 0h-375v250h125v-187.5h62.5v187.5h62.5v-187.5h62.5v187.5h62.5v-250z" />
  </svg>

<svg height="1000" width="1125" xmlns="http://www.w3.org/2000/svg"><path d="M562.5 562.5H500v-125h62.5v125zm562.5 -250v375H562.5V750h-250v-62.5H0v-375h1125zM312.5 375h-250v250h125V437.5H250V625h62.5V375zm312.5 0H375v312.5h125V625h125V375zm437.5 0h-375v250h125V437.5H875V625h62.5V437.5h62.5V625h62.5V375z"/></svg>
